images/3232655.svg

<?xml version="1.0" encoding="UTF-8"?>
<svg xmlns="http://www.w3.org/2000/svg" xmlns:xlink="http://www.w3.org/1999/xlink" width="300pt" height="300pt" viewBox="0 0 300 300" version="1.1">
<defs>
<g>
<symbol overflow="visible" id="glyph0-0">
<path style="stroke:none;" d="M 0.546875 1.9375 L 0.546875 -7.75 L 6.046875 -7.75 L 6.046875 1.9375 Z M 1.171875 1.328125 L 5.4375 1.328125 L 5.4375 -7.140625 L 1.171875 -7.140625 Z M 1.171875 1.328125 "/>
</symbol>
<symbol overflow="visible" id="glyph0-1">
<path style="stroke:none;" d="M 1.078125 -8.015625 L 2.546875 -8.015625 L 6.09375 -1.3125 L 6.09375 -8.015625 L 7.15625 -8.015625 L 7.15625 0 L 5.6875 0 L 2.125 -6.703125 L 2.125 0 L 1.078125 0 Z M 1.078125 -8.015625 "/>
</symbol>
<symbol overflow="visible" id="glyph0-2">
<path style="stroke:none;" d="M 4.328125 -7.28125 C 3.546875 -7.28125 2.921875 -6.984375 2.453125 -6.390625 C 1.992188 -5.804688 1.765625 -5.007812 1.765625 -4 C 1.765625 -2.988281 1.992188 -2.1875 2.453125 -1.59375 C 2.921875 -1.007812 3.546875 -0.71875 4.328125 -0.71875 C 5.117188 -0.71875 5.742188 -1.007812 6.203125 -1.59375 C 6.660156 -2.1875 6.890625 -2.988281 6.890625 -4 C 6.890625 -5.007812 6.660156 -5.804688 6.203125 -6.390625 C 5.742188 -6.984375 5.117188 -7.28125 4.328125 -7.28125 Z M 4.328125 -8.171875 C 5.453125 -8.171875 6.351562 -7.789062 7.03125 -7.03125 C 7.707031 -6.28125 8.046875 -5.269531 8.046875 -4 C 8.046875 -2.738281 7.707031 -1.726562 7.03125 -0.96875 C 6.351562 -0.21875 5.453125 0.15625 4.328125 0.15625 C 3.203125 0.15625 2.300781 -0.21875 1.625 -0.96875 C 0.957031 -1.71875 0.625 -2.726562 0.625 -4 C 0.625 -5.269531 0.957031 -6.28125 1.625 -7.03125 C 2.300781 -7.789062 3.203125 -8.171875 4.328125 -8.171875 Z M 4.328125 -8.171875 "/>
</symbol>
</g>
</defs>
<g id="surface44113">
<rect x="0" y="0" width="300" height="300" style="fill:rgb(100%,100%,100%);fill-opacity:1;stroke:none;"/>
<path style="fill:none;stroke-width:1.2;stroke-linecap:butt;stroke-linejoin:miter;stroke:rgb(0%,0%,0%);stroke-opacity:1;stroke-miterlimit:10;" d="M 35.25 136.679688 L 48.132812 137.378906 "/>
<path style="fill:none;stroke-width:1.2;stroke-linecap:butt;stroke-linejoin:miter;stroke:rgb(0%,0%,100%);stroke-opacity:1;stroke-miterlimit:10;" d="M 48.132812 137.378906 L 61.019531 138.074219 "/>
<path style="fill:none;stroke-width:1.2;stroke-linecap:butt;stroke-linejoin:miter;stroke:rgb(0%,0%,100%);stroke-opacity:1;stroke-miterlimit:10;" d="M 61.019531 138.074219 L 68.066406 127.265625 "/>
<path style="fill:none;stroke-width:1.2;stroke-linecap:butt;stroke-linejoin:miter;stroke:rgb(0%,0%,0%);stroke-opacity:1;stroke-miterlimit:10;" d="M 68.066406 127.265625 L 75.109375 116.457031 "/>
<path style="fill:none;stroke-width:1.2;stroke-linecap:butt;stroke-linejoin:miter;stroke:rgb(0%,0%,100%);stroke-opacity:1;stroke-miterlimit:10;" d="M 61.019531 138.074219 L 66.855469 149.582031 "/>
<path style="fill:none;stroke-width:1.2;stroke-linecap:butt;stroke-linejoin:miter;stroke:rgb(0%,0%,0%);stroke-opacity:1;stroke-miterlimit:10;" d="M 66.855469 149.582031 L 72.695312 161.089844 "/>
<path style=" stroke:none;fill-rule:nonzero;fill:rgb(100%,100%,100%);fill-opacity:1;" d="M 57.019531 131.574219 L 65.019531 131.574219 L 65.019531 144.574219 L 57.019531 144.574219 Z M 57.019531 131.574219 "/>
<g style="fill:rgb(0%,0%,100%);fill-opacity:1;">
  <use xlink:href="#glyph0-1" x="57.019531" y="141.475586"/>
</g>
<path style="fill:none;stroke-width:1.2;stroke-linecap:butt;stroke-linejoin:miter;stroke:rgb(0%,0%,0%);stroke-opacity:1;stroke-miterlimit:10;" d="M 70.152344 159.429688 L 63.105469 170.242188 "/>
<path style="fill:none;stroke-width:1.2;stroke-linecap:butt;stroke-linejoin:miter;stroke:rgb(100%,0%,0%);stroke-opacity:1;stroke-miterlimit:10;" d="M 63.105469 170.242188 L 56.058594 181.050781 "/>
<path style="fill:none;stroke-width:1.2;stroke-linecap:butt;stroke-linejoin:miter;stroke:rgb(0%,0%,0%);stroke-opacity:1;stroke-miterlimit:10;" d="M 75.238281 162.746094 L 68.191406 173.554688 "/>
<path style="fill:none;stroke-width:1.2;stroke-linecap:butt;stroke-linejoin:miter;stroke:rgb(100%,0%,0%);stroke-opacity:1;stroke-miterlimit:10;" d="M 68.191406 173.554688 L 61.144531 184.367188 "/>
<path style="fill:none;stroke-width:1.2;stroke-linecap:butt;stroke-linejoin:miter;stroke:rgb(0%,0%,0%);stroke-opacity:1;stroke-miterlimit:10;" d="M 72.695312 161.089844 L 98.464844 162.484375 "/>
<path style=" stroke:none;fill-rule:nonzero;fill:rgb(100%,100%,100%);fill-opacity:1;" d="M 49.601562 176.207031 L 58.601562 176.207031 L 58.601562 189.207031 L 49.601562 189.207031 Z M 49.601562 176.207031 "/>
<g style="fill:rgb(100%,0%,0%);fill-opacity:1;">
  <use xlink:href="#glyph0-2" x="49.601562" y="186.108398"/>
</g>
<path style="fill:none;stroke-width:1.2;stroke-linecap:butt;stroke-linejoin:miter;stroke:rgb(0%,0%,0%);stroke-opacity:1;stroke-miterlimit:10;" d="M 98.464844 162.484375 L 112.554688 140.867188 "/>
<path style="fill:none;stroke-width:1.2;stroke-linecap:butt;stroke-linejoin:miter;stroke:rgb(0%,0%,0%);stroke-opacity:1;stroke-miterlimit:10;" d="M 104.960938 163.636719 L 116.234375 146.34375 "/>
<path style="fill:none;stroke-width:1.2;stroke-linecap:butt;stroke-linejoin:miter;stroke:rgb(0%,0%,0%);stroke-opacity:1;stroke-miterlimit:10;" d="M 110.140625 185.496094 L 98.464844 162.484375 "/>
<path style="fill:none;stroke-width:1.2;stroke-linecap:butt;stroke-linejoin:miter;stroke:rgb(0%,0%,0%);stroke-opacity:1;stroke-miterlimit:10;" d="M 112.554688 140.867188 L 138.324219 142.261719 "/>
<path style="fill:none;stroke-width:1.2;stroke-linecap:butt;stroke-linejoin:miter;stroke:rgb(0%,0%,0%);stroke-opacity:1;stroke-miterlimit:10;" d="M 138.324219 142.261719 L 150 165.273438 "/>
<path style="fill:none;stroke-width:1.2;stroke-linecap:butt;stroke-linejoin:miter;stroke:rgb(0%,0%,0%);stroke-opacity:1;stroke-miterlimit:10;" d="M 134.078125 147.308594 L 143.417969 165.71875 "/>
<path style="fill:none;stroke-width:1.2;stroke-linecap:butt;stroke-linejoin:miter;stroke:rgb(0%,0%,0%);stroke-opacity:1;stroke-miterlimit:10;" d="M 150 165.273438 L 135.90625 186.894531 "/>
<path style="fill:none;stroke-width:1.2;stroke-linecap:butt;stroke-linejoin:miter;stroke:rgb(0%,0%,0%);stroke-opacity:1;stroke-miterlimit:10;" d="M 150 165.273438 L 175.769531 166.667969 "/>
<path style="fill:none;stroke-width:1.2;stroke-linecap:butt;stroke-linejoin:miter;stroke:rgb(0%,0%,0%);stroke-opacity:1;stroke-miterlimit:10;" d="M 135.90625 186.894531 L 110.140625 185.496094 "/>
<path style="fill:none;stroke-width:1.2;stroke-linecap:butt;stroke-linejoin:miter;stroke:rgb(0%,0%,0%);stroke-opacity:1;stroke-miterlimit:10;" d="M 133.660156 180.691406 L 113.042969 179.574219 "/>
<path style="fill:none;stroke-width:1.2;stroke-linecap:butt;stroke-linejoin:miter;stroke:rgb(0%,0%,0%);stroke-opacity:1;stroke-miterlimit:10;" d="M 175.769531 166.667969 L 181.605469 178.175781 "/>
<path style="fill:none;stroke-width:1.2;stroke-linecap:butt;stroke-linejoin:miter;stroke:rgb(0%,0%,100%);stroke-opacity:1;stroke-miterlimit:10;" d="M 181.605469 178.175781 L 187.445312 189.683594 "/>
<path style="fill:none;stroke-width:1.2;stroke-linecap:butt;stroke-linejoin:miter;stroke:rgb(0%,0%,0%);stroke-opacity:1;stroke-miterlimit:10;" d="M 182.351562 166.222656 L 187.023438 175.429688 "/>
<path style="fill:none;stroke-width:1.2;stroke-linecap:butt;stroke-linejoin:miter;stroke:rgb(0%,0%,100%);stroke-opacity:1;stroke-miterlimit:10;" d="M 187.023438 175.429688 L 191.691406 184.632812 "/>
<path style="fill:none;stroke-width:1.2;stroke-linecap:butt;stroke-linejoin:miter;stroke:rgb(0%,0%,100%);stroke-opacity:1;stroke-miterlimit:10;" d="M 189.859375 145.050781 L 182.816406 155.859375 "/>
<path style="fill:none;stroke-width:1.2;stroke-linecap:butt;stroke-linejoin:miter;stroke:rgb(0%,0%,0%);stroke-opacity:1;stroke-miterlimit:10;" d="M 182.816406 155.859375 L 175.769531 166.667969 "/>
<path style="fill:none;stroke-width:1.2;stroke-linecap:butt;stroke-linejoin:miter;stroke:rgb(0%,0%,100%);stroke-opacity:1;stroke-miterlimit:10;" d="M 187.445312 189.683594 L 200.328125 190.378906 "/>
<path style="fill:none;stroke-width:1.2;stroke-linecap:butt;stroke-linejoin:miter;stroke:rgb(0%,0%,0%);stroke-opacity:1;stroke-miterlimit:10;" d="M 200.328125 190.378906 L 213.214844 191.078125 "/>
<path style=" stroke:none;fill-rule:nonzero;fill:rgb(100%,100%,100%);fill-opacity:1;" d="M 183.445312 183.183594 L 191.445312 183.183594 L 191.445312 196.183594 L 183.445312 196.183594 Z M 183.445312 183.183594 "/>
<g style="fill:rgb(0%,0%,100%);fill-opacity:1;">
  <use xlink:href="#glyph0-1" x="183.445312" y="193.084961"/>
</g>
<path style="fill:none;stroke-width:1.2;stroke-linecap:butt;stroke-linejoin:miter;stroke:rgb(0%,0%,0%);stroke-opacity:1;stroke-miterlimit:10;" d="M 213.214844 191.078125 L 224.890625 214.089844 "/>
<path style="fill:none;stroke-width:1.2;stroke-linecap:butt;stroke-linejoin:miter;stroke:rgb(0%,0%,0%);stroke-opacity:1;stroke-miterlimit:10;" d="M 219.796875 190.632812 L 229.136719 209.042969 "/>
<path style="fill:none;stroke-width:1.2;stroke-linecap:butt;stroke-linejoin:miter;stroke:rgb(0%,0%,0%);stroke-opacity:1;stroke-miterlimit:10;" d="M 227.304688 169.460938 L 213.214844 191.078125 "/>
<path style="fill:none;stroke-width:1.2;stroke-linecap:butt;stroke-linejoin:miter;stroke:rgb(0%,0%,0%);stroke-opacity:1;stroke-miterlimit:10;" d="M 224.890625 214.089844 L 250.65625 215.488281 "/>
<path style="fill:none;stroke-width:1.2;stroke-linecap:butt;stroke-linejoin:miter;stroke:rgb(0%,0%,0%);stroke-opacity:1;stroke-miterlimit:10;" d="M 250.65625 215.488281 L 264.75 193.867188 "/>
<path style="fill:none;stroke-width:1.2;stroke-linecap:butt;stroke-linejoin:miter;stroke:rgb(0%,0%,0%);stroke-opacity:1;stroke-miterlimit:10;" d="M 246.980469 210.007812 L 258.253906 192.714844 "/>
<path style="fill:none;stroke-width:1.2;stroke-linecap:butt;stroke-linejoin:miter;stroke:rgb(0%,0%,0%);stroke-opacity:1;stroke-miterlimit:10;" d="M 264.75 193.867188 L 253.074219 170.855469 "/>
<path style="fill:none;stroke-width:1.2;stroke-linecap:butt;stroke-linejoin:miter;stroke:rgb(0%,0%,0%);stroke-opacity:1;stroke-miterlimit:10;" d="M 253.074219 170.855469 L 227.304688 169.460938 "/>
<path style="fill:none;stroke-width:1.2;stroke-linecap:butt;stroke-linejoin:miter;stroke:rgb(0%,0%,0%);stroke-opacity:1;stroke-miterlimit:10;" d="M 250.167969 176.777344 L 229.554688 175.660156 "/>
<path style="fill:none;stroke-width:1.2;stroke-linecap:butt;stroke-linejoin:miter;stroke:rgb(0%,0%,0%);stroke-opacity:1;stroke-miterlimit:10;" d="M 227.304688 169.460938 L 215.628906 146.445312 "/>
<path style="fill:none;stroke-width:1.2;stroke-linecap:butt;stroke-linejoin:miter;stroke:rgb(0%,0%,0%);stroke-opacity:1;stroke-miterlimit:10;" d="M 215.628906 146.445312 L 202.746094 145.75 "/>
<path style="fill:none;stroke-width:1.2;stroke-linecap:butt;stroke-linejoin:miter;stroke:rgb(0%,0%,100%);stroke-opacity:1;stroke-miterlimit:10;" d="M 202.746094 145.75 L 189.859375 145.050781 "/>
<path style="fill:none;stroke-width:1.2;stroke-linecap:butt;stroke-linejoin:miter;stroke:rgb(0%,0%,0%);stroke-opacity:1;stroke-miterlimit:10;" d="M 212.722656 152.371094 L 202.417969 151.8125 "/>
<path style="fill:none;stroke-width:1.2;stroke-linecap:butt;stroke-linejoin:miter;stroke:rgb(0%,0%,100%);stroke-opacity:1;stroke-miterlimit:10;" d="M 202.417969 151.8125 L 192.109375 151.253906 "/>
<path style="fill:none;stroke-width:1.2;stroke-linecap:butt;stroke-linejoin:miter;stroke:rgb(0%,0%,0%);stroke-opacity:1;stroke-miterlimit:10;" d="M 215.628906 146.445312 L 222.675781 135.636719 "/>
<path style="fill:none;stroke-width:1.2;stroke-linecap:butt;stroke-linejoin:miter;stroke:rgb(0%,0%,100%);stroke-opacity:1;stroke-miterlimit:10;" d="M 222.675781 135.636719 L 229.722656 124.828125 "/>
<path style=" stroke:none;fill-rule:nonzero;fill:rgb(100%,100%,100%);fill-opacity:1;" d="M 185.859375 138.550781 L 193.859375 138.550781 L 193.859375 151.550781 L 185.859375 151.550781 Z M 185.859375 138.550781 "/>
<g style="fill:rgb(0%,0%,100%);fill-opacity:1;">
  <use xlink:href="#glyph0-1" x="185.859375" y="148.452148"/>
</g>
<path style="fill:none;stroke-width:1.2;stroke-linecap:butt;stroke-linejoin:miter;stroke:rgb(0%,0%,100%);stroke-opacity:1;stroke-miterlimit:10;" d="M 229.722656 124.828125 L 225.117188 112.773438 "/>
<path style="fill:none;stroke-width:1.2;stroke-linecap:butt;stroke-linejoin:miter;stroke:rgb(0%,0%,0%);stroke-opacity:1;stroke-miterlimit:10;" d="M 225.117188 112.773438 L 220.515625 100.71875 "/>
<path style="fill:none;stroke-width:1.2;stroke-linecap:butt;stroke-linejoin:miter;stroke:rgb(0%,0%,0%);stroke-opacity:1;stroke-miterlimit:10;" d="M 255.496094 123.519531 L 242.609375 124.175781 "/>
<path style="fill:none;stroke-width:1.2;stroke-linecap:butt;stroke-linejoin:miter;stroke:rgb(0%,0%,100%);stroke-opacity:1;stroke-miterlimit:10;" d="M 242.609375 124.175781 L 229.722656 124.828125 "/>
<path style=" stroke:none;fill-rule:nonzero;fill:rgb(100%,100%,100%);fill-opacity:1;" d="M 225.722656 118.328125 L 233.722656 118.328125 L 233.722656 131.328125 L 225.722656 131.328125 Z M 225.722656 118.328125 "/>
<g style="fill:rgb(0%,0%,100%);fill-opacity:1;">
  <use xlink:href="#glyph0-1" x="225.722656" y="128.229492"/>
</g>
<path style="fill:none;stroke-width:1.2;stroke-linecap:butt;stroke-linejoin:miter;stroke:rgb(0%,0%,0%);stroke-opacity:1;stroke-miterlimit:10;" d="M 220.515625 100.71875 L 240.597656 84.511719 "/>
<path style="fill:none;stroke-width:1.2;stroke-linecap:butt;stroke-linejoin:miter;stroke:rgb(0%,0%,0%);stroke-opacity:1;stroke-miterlimit:10;" d="M 226.335938 103.824219 L 242.402344 90.859375 "/>
<path style="fill:none;stroke-width:1.2;stroke-linecap:butt;stroke-linejoin:miter;stroke:rgb(0%,0%,0%);stroke-opacity:1;stroke-miterlimit:10;" d="M 240.597656 84.511719 L 251.40625 91.558594 "/>
<path style="fill:none;stroke-width:1.2;stroke-linecap:butt;stroke-linejoin:miter;stroke:rgb(0%,0%,100%);stroke-opacity:1;stroke-miterlimit:10;" d="M 251.40625 91.558594 L 262.21875 98.605469 "/>
<path style="fill:none;stroke-width:1.2;stroke-linecap:butt;stroke-linejoin:miter;stroke:rgb(0%,0%,100%);stroke-opacity:1;stroke-miterlimit:10;" d="M 262.21875 98.605469 L 258.855469 111.0625 "/>
<path style="fill:none;stroke-width:1.2;stroke-linecap:butt;stroke-linejoin:miter;stroke:rgb(0%,0%,0%);stroke-opacity:1;stroke-miterlimit:10;" d="M 258.855469 111.0625 L 255.496094 123.519531 "/>
<path style="fill:none;stroke-width:1.2;stroke-linecap:butt;stroke-linejoin:miter;stroke:rgb(0%,0%,100%);stroke-opacity:1;stroke-miterlimit:10;" d="M 255.683594 99.515625 L 252.992188 109.480469 "/>
<path style="fill:none;stroke-width:1.2;stroke-linecap:butt;stroke-linejoin:miter;stroke:rgb(0%,0%,0%);stroke-opacity:1;stroke-miterlimit:10;" d="M 252.992188 109.480469 L 250.304688 119.449219 "/>
<path style=" stroke:none;fill-rule:nonzero;fill:rgb(100%,100%,100%);fill-opacity:1;" d="M 258.21875 92.105469 L 266.21875 92.105469 L 266.21875 105.105469 L 258.21875 105.105469 Z M 258.21875 92.105469 "/>
<g style="fill:rgb(0%,0%,100%);fill-opacity:1;">
  <use xlink:href="#glyph0-1" x="258.21875" y="102.006836"/>
</g>
</g>
</svg>

<svg xmlns="http://www.w3.org/2000/svg" xmlns:xlink="http://www.w3.org/1999/xlink" width="300pt" height="300pt" viewBox="0 0 300 300"><defs><symbol overflow="visible"><path d="M.547 1.938V-7.75h5.5v9.688zm.625-.61h4.266v-8.47H1.171zm0 0"/></symbol><symbol overflow="visible" id="a"><path d="M1.078-8.016h1.47l3.546 6.704v-6.704h1.062V0H5.688L2.124-6.703V0H1.078zm0 0"/></symbol><symbol overflow="visible" id="b"><path d="M4.328-7.28c-.78 0-1.406.296-1.875.89-.46.585-.687 1.382-.687 2.39 0 1.012.226 1.813.687 2.406.47.586 1.094.875 1.875.875.79 0 1.414-.288 1.875-.874.457-.593.688-1.394.688-2.406 0-1.008-.23-1.805-.687-2.39-.46-.594-1.086-.89-1.875-.89zm0-.892c1.125 0 2.024.383 2.703 1.14C7.708-6.28 8.048-5.27 8.048-4c0 1.262-.34 2.273-1.016 3.03C6.353-.22 5.454.157 4.33.157S2.3-.22 1.625-.97c-.668-.75-1-1.757-1-3.03 0-1.27.332-2.28 1-3.03.676-.76 1.578-1.142 2.703-1.142zm0 0"/></symbol></defs><g><path fill="#fff" d="M0 0h300v300H0z"/><path d="M35.25 136.68l12.883.7" stroke-width="1.2" stroke="#000" stroke-miterlimit="10" fill="none"/><path d="M48.133 137.38l12.887.694M61.02 138.074l7.046-10.808" stroke-width="1.2" stroke="#00f" stroke-miterlimit="10" fill="none"/><path d="M68.066 127.266l7.043-10.81" stroke-width="1.2" stroke="#000" stroke-miterlimit="10" fill="none"/><path d="M61.02 138.074l5.835 11.508" stroke-width="1.2" stroke="#00f" stroke-miterlimit="10" fill="none"/><path d="M66.855 149.582l5.84 11.508" stroke-width="1.2" stroke="#000" stroke-miterlimit="10" fill="none"/><path d="M57.02 131.574h8v13h-8zm0 0" fill="#fff"/><use xlink:href="#a" x="57.02" y="141.476" fill="#00f"/><path d="M70.152 159.43l-7.047 10.812" stroke-width="1.2" stroke="#000" stroke-miterlimit="10" fill="none"/><path d="M63.105 170.242l-7.046 10.81" stroke-width="1.2" stroke="#f00" stroke-miterlimit="10" fill="none"/><path d="M75.238 162.746l-7.047 10.81" stroke-width="1.2" stroke="#000" stroke-miterlimit="10" fill="none"/><path d="M68.19 173.555l-7.045 10.812" stroke-width="1.2" stroke="#f00" stroke-miterlimit="10" fill="none"/><path d="M72.695 161.09l25.77 1.394" stroke-width="1.2" stroke="#000" stroke-miterlimit="10" fill="none"/><path d="M49.602 176.207h9v13h-9zm0 0" fill="#fff"/><use xlink:href="#b" x="49.602" y="186.108" fill="#f00"/><path d="M98.465 162.484l14.09-21.617M104.96 163.637l11.274-17.293M110.14 185.496l-11.675-23.012M112.555 140.867l25.77 1.395M138.324 142.262L150 165.272M134.078 147.31l9.34 18.41M150 165.273l-14.094 21.622M150 165.273l25.77 1.395M135.906 186.895l-25.765-1.4M133.66 180.69l-20.617-1.116M175.77 166.668l5.835 11.508" stroke-width="1.2" stroke="#000" stroke-miterlimit="10" fill="none"/><path d="M181.605 178.176l5.84 11.508" stroke-width="1.2" stroke="#00f" stroke-miterlimit="10" fill="none"/><path d="M182.352 166.223l4.67 9.207" stroke-width="1.2" stroke="#000" stroke-miterlimit="10" fill="none"/><path d="M187.023 175.43l4.668 9.203M189.86 145.05l-7.044 10.81" stroke-width="1.2" stroke="#00f" stroke-miterlimit="10" fill="none"/><path d="M182.816 155.86l-7.046 10.808" stroke-width="1.2" stroke="#000" stroke-miterlimit="10" fill="none"/><path d="M187.445 189.684l12.883.695" stroke-width="1.2" stroke="#00f" stroke-miterlimit="10" fill="none"/><path d="M200.328 190.38l12.887.698" stroke-width="1.2" stroke="#000" stroke-miterlimit="10" fill="none"/><path d="M183.445 183.184h8v13h-8zm0 0" fill="#fff"/><use xlink:href="#a" x="183.445" y="193.085" fill="#00f"/><path d="M213.215 191.078l11.676 23.012M219.797 190.633l9.34 18.41M227.305 169.46l-14.09 21.618M224.89 214.09l25.766 1.398M250.656 215.488l14.094-21.62M246.98 210.008l11.274-17.293M264.75 193.867l-11.676-23.012M253.074 170.855l-25.77-1.394M250.168 176.777l-20.613-1.117M227.305 169.46l-11.676-23.015M215.63 146.445l-12.884-.695" stroke-width="1.2" stroke="#000" stroke-miterlimit="10" fill="none"/><path d="M202.746 145.75l-12.887-.7" stroke-width="1.2" stroke="#00f" stroke-miterlimit="10" fill="none"/><path d="M212.723 152.37l-10.305-.558" stroke-width="1.2" stroke="#000" stroke-miterlimit="10" fill="none"/><path d="M202.418 151.813l-10.31-.56" stroke-width="1.2" stroke="#00f" stroke-miterlimit="10" fill="none"/><path d="M215.63 146.445l7.046-10.808" stroke-width="1.2" stroke="#000" stroke-miterlimit="10" fill="none"/><path d="M222.676 135.637l7.047-10.81" stroke-width="1.2" stroke="#00f" stroke-miterlimit="10" fill="none"/><path d="M185.86 138.55h8v13h-8zm0 0" fill="#fff"/><use xlink:href="#a" x="185.859" y="148.452" fill="#00f"/><path d="M229.723 124.828l-4.606-12.055" stroke-width="1.2" stroke="#00f" stroke-miterlimit="10" fill="none"/><path d="M225.117 112.773l-4.6-12.054M255.496 123.52l-12.887.656" stroke-width="1.2" stroke="#000" stroke-miterlimit="10" fill="none"/><path d="M242.61 124.176l-12.887.652" stroke-width="1.2" stroke="#00f" stroke-miterlimit="10" fill="none"/><path d="M225.723 118.328h8v13h-8zm0 0" fill="#fff"/><use xlink:href="#a" x="225.723" y="128.229" fill="#00f"/><path d="M220.516 100.72l20.082-16.208M226.336 103.824l16.066-12.965M240.598 84.512l10.808 7.047" stroke-width="1.2" stroke="#000" stroke-miterlimit="10" fill="none"/><path d="M251.406 91.56l10.813 7.045M262.22 98.605l-3.365 12.457" stroke-width="1.2" stroke="#00f" stroke-miterlimit="10" fill="none"/><path d="M258.855 111.063l-3.36 12.457" stroke-width="1.2" stroke="#000" stroke-miterlimit="10" fill="none"/><path d="M255.684 99.516l-2.692 9.964" stroke-width="1.2" stroke="#00f" stroke-miterlimit="10" fill="none"/><path d="M252.992 109.48l-2.687 9.97" stroke-width="1.2" stroke="#000" stroke-miterlimit="10" fill="none"/><path d="M258.22 92.105h8v13h-8zm0 0" fill="#fff"/><use xlink:href="#a" x="258.219" y="102.007" fill="#00f"/></g></svg>
